X: 535
T: Ducks on the Millpond
B: jims roots
M:2/4
L:1/16
Q: 1/4=100
K:D
V:1 
|:"D"faab a2fa | abaf edd2 | fa2a f2dB | "A"AdBd "D"edd2 |
"D"faab a2fa | abaf e2d2 | faaa f2dd | "A"ABBd "D"edd2 :|
|:"D"d2d2 ffef | deff edBd | d2dd ffed | "A"BABd "D"edd2 ||
"D"d2d2 ffed | d2ff edBd | d2d2 ffed | "A"BABd "D"edd2 :|
http://box5209.temp.domains/~txdtvhmy/jimsrootsandblues/ducks-on-the-pond/?preview=true
% abcbook-tune_id 6298c25d743a720888f78e9f


% abcbook-boost 0
% abcbook-tablature 
% abcbook-transpose 
% abcbook-lastupdated 1654178397712
% abcbook-soundfonts 
% abcbook-repeats 1


